src/components/Powered/assets/logo.svg

<svg width="45" height="42" viewBox="0 0 45 42" fill="none" xmlns="http://www.w3.org/2000/svg">
<path d="M24.0625 29.3159C31.2413 29.3159 37.061 23.4889 37.061 16.3009C37.061 9.11299 31.2413 3.28601 24.0625 3.28601C16.8836 3.28601 11.064 9.11299 11.064 16.3009C11.064 23.4889 16.8836 29.3159 24.0625 29.3159Z" fill="#95DFFF"/>
<path d="M33.3204 12.7499C34.2519 14.0126 34.6102 15.153 34.6102 16.7027C34.6102 18.5825 33.8363 20.3188 32.5178 21.725L33.3204 24.724H35.7567L38.322 21.8111L39.0099 17.5493L39.1532 15.0095L36.6166 12.1396C34.3613 11.8679 33.2625 12.0713 33.3204 12.7499Z" fill="white"/>
<path d="M4.95858 25.0684L5.40285 26.8333C5.40285 26.8333 10.6481 37.6097 22.4571 41.6132C22.4571 41.6132 33.2007 37.0214 37.973 29.2297L31.3855 23.4756C31.3855 23.4756 28.2326 25.9867 23.5463 25.9867C18.8599 25.9867 12.4968 23.1886 12.4968 17.4201C12.4968 11.6517 19.0892 9.54229 19.0892 9.54229L16.2803 8.85352H9.10032L4.54297 19.8452L4.95858 25.0684Z" fill="white"/>
<path d="M44.6417 12.9545C44.4411 12.7536 39.3278 6.54029 23.377 1.04446C22.8729 0.699137 22.5996 0.592525 22.5572 0.724628C7.74138 4.50743 0.472656 12.4575 0.472656 12.9545C0.472656 13.4515 2.59369 20.9215 3.9695 23.9635C4.08415 24.2218 5.91855 27.4648 7.28003 29.2298C6.47747 27.4648 5.60326 25.9294 5.60326 23.2891C5.60326 15.8418 11.3644 9.78631 18.5731 9.52802C18.7451 9.52802 18.9314 9.52802 19.1034 9.54237L17.3836 7.82043C17.3836 7.82043 24.3056 6.65813 33.191 12.0392C33.191 12.0392 33.32 12.3118 33.191 13.1154C33.191 13.1154 37.3758 14.9234 37.7341 18.439C38.0923 21.9546 35.871 23.9635 34.0796 24.2505C34.0796 24.2505 35.0111 22.8012 33.578 22.0264C33.277 21.8542 32.9187 21.7824 32.5605 21.7968C29.8232 21.7968 29.5079 24.9249 29.5079 24.9249C29.4792 25.0828 29.4792 25.2406 29.4792 25.3985C29.4792 25.3985 29.0206 29.9759 37.1608 29.8898C37.1608 29.8898 41.2882 25.2119 42.3774 21.0075C42.7787 19.4578 43.0653 18.2955 43.2516 17.4345C43.7102 16.2148 44.1545 14.4181 44.5844 13.1123L44.6417 12.9545Z" fill="#019FE3"/>
<path opacity="0.895424" d="M29.6509 13.4312C29.7656 13.3738 30.1382 13.1872 30.5681 12.7424C31.428 12.8572 32.2736 13.1298 32.2736 13.1298C30.7115 12.1828 28.5761 11.6231 26.2114 11.6375C26.2114 11.6375 27.1143 12.9289 29.6223 13.4599C29.6223 13.4599 29.6366 13.4455 29.6509 13.4312Z" fill="white"/>
<path d="M44.7995 12.2476C36.1721 4.7849 25.2659 0.90723 23.0016 0.16096L22.7866 0.0877964L22.5 0L21.9984 0.16096C19.734 0.90723 8.82791 4.7849 0.200467 12.2476L0.0141602 12.4086L0.0571541 12.6573C0.0714854 12.7158 1.00302 18.3787 4.18457 24.7732C6.06197 28.5338 8.34065 31.7969 10.9489 34.504C14.1448 37.811 17.871 40.2547 22.0127 41.7765L22.2563 41.8643L22.5 41.952L22.7579 41.8496L23.0016 41.7618C27.1433 40.24 30.8551 37.7964 34.0653 34.4894C36.6736 31.7969 38.9523 28.5192 40.8297 24.7586C44.0113 18.3787 44.9571 12.7012 44.9571 12.6427L45.0001 12.3939L44.7995 12.2476ZM40.0415 24.3635C38.2071 28.0363 35.9857 31.2409 33.4348 33.8748C30.2676 37.1379 26.5987 39.5377 22.5 41.0156C18.4012 39.5377 14.7324 37.1525 11.5652 33.8894C9.01422 31.2555 6.79287 28.0656 4.95846 24.3928C2.19252 18.8616 1.16066 13.9011 0.945695 12.7597C9.78811 5.19462 20.9665 1.41938 22.5 0.921862C24.0191 1.41938 35.2119 5.19462 44.0543 12.7597C43.8393 13.8865 42.7931 18.847 40.0415 24.3635Z" fill="#9EBFFF"/>
</svg>

<svg width="45" height="42" fill="none" xmlns="http://www.w3.org/2000/svg"><path d="M24.063 29.316c7.178 0 12.998-5.827 12.998-13.015 0-7.188-5.82-13.015-12.998-13.015-7.18 0-12.999 5.827-12.999 13.015 0 7.188 5.82 13.015 12.998 13.015z" fill="#95DFFF"/><path d="M33.32 12.75c.932 1.263 1.29 2.403 1.29 3.953 0 1.88-.774 3.616-2.092 5.022l.802 2.999h2.437l2.565-2.913.688-4.262.143-2.54-2.536-2.87c-2.256-.271-3.354-.068-3.297.61z" fill="#fff"/><path d="M4.959 25.068l.444 1.765s5.245 10.777 17.054 14.78c0 0 10.744-4.592 15.516-12.383l-6.587-5.754s-3.153 2.51-7.84 2.51c-4.686 0-11.05-2.797-11.05-8.566 0-5.768 6.593-7.878 6.593-7.878l-2.809-.688H9.1L4.543 19.845l.416 5.223z" fill="#fff"/><path d="M44.642 12.954c-.2-.2-5.314-6.414-21.265-11.91-.504-.345-.777-.451-.82-.32C7.741 4.508.473 12.459.473 12.955c0 .497 2.12 7.968 3.497 11.01.114.258 1.949 3.5 3.31 5.266-.803-1.765-1.677-3.3-1.677-5.94 0-7.448 5.761-13.504 12.97-13.762.172 0 .358 0 .53.014l-1.72-1.722s6.923-1.162 15.808 4.22c0 0 .129.272 0 1.075 0 0 4.185 1.808 4.543 5.324.358 3.516-1.863 5.524-3.654 5.811 0 0 .931-1.449-.502-2.224a1.9 1.9 0 0 0-1.018-.23c-2.737 0-3.052 3.129-3.052 3.129-.029.158-.029.316-.029.473 0 0-.458 4.578 7.682 4.492 0 0 4.127-4.678 5.216-8.883.402-1.55.688-2.712.875-3.573.458-1.22.902-3.016 1.332-4.322l.058-.158z" fill="#019FE3"/><path opacity=".895" d="M29.65 13.431c.116-.057.488-.244.918-.689.86.115 1.706.388 1.706.388-1.563-.947-3.698-1.507-6.063-1.493 0 0 .903 1.292 3.411 1.823l.029-.029z" fill="#fff"/><path d="M44.8 12.248C36.172 4.785 25.266.908 23.002.16l-.215-.073L22.5 0l-.502.161C19.734.907 8.828 4.785.2 12.248l-.186.16.043.25c.014.058.946 5.72 4.128 12.115 1.877 3.76 4.156 7.024 6.764 9.731 3.196 3.307 6.922 5.75 11.064 7.273l.243.087.244.088.258-.102.244-.088c4.141-1.522 7.853-3.966 11.063-7.273 2.609-2.692 4.887-5.97 6.765-9.73 3.181-6.38 4.127-12.058 4.127-12.116l.043-.25-.2-.145zm-4.758 12.115c-1.835 3.673-4.056 6.878-6.607 9.512-3.167 3.263-6.836 5.663-10.935 7.14-4.099-1.477-7.768-3.862-10.935-7.126-2.55-2.634-4.772-5.823-6.607-9.496C2.193 18.862 1.161 13.9.946 12.76 9.788 5.195 20.966 1.42 22.5.922c1.52.497 12.712 4.273 21.554 11.838-.215 1.127-1.26 6.087-4.013 11.603z" fill="#9EBFFF"/></svg>
